X:13
T: Barbara Allen
R: hp 32 reel
M: 4/4
L: 1/8
K:Gmin
D2 |: GABG ABcA | d2d2 cAFA | B2GB A2F2 | GABG cAF2 |
GABG ABcA | d2d2 cAFA | B2GA BAGF |[1 D2G2 G3D :|2 D2G2 G3d ||
|: g^fd^f g^fd^f | g^fga gbag | fcAc fcAc | defd cAF2 |
GABG ABcA | d2d2 cAFA | BBGA BAGF |[1 D2G2 G3d :|2 D2G2 G4 ||

